X:1
T:E Major William Billings, 1779
T:Isaac Watts, 1717 (Psalm 117, Version 1)     86. 86. (C. M.)
T:Trinity New Transcribed from Music In Miniature, 1779.
%%score [ 1 2 3 4 ]
L:1/8
Q:1/4=150
M:3/2
K:E
V:1 treble nm="Treble" snm="Tr."
V:2 treble nm="Counter" snm="C."
V:3 treble-8 nm="Tenor" snm="T."
V:4 bass nm="Bass" snm="B."
V:1
 G4 | B8 A4 | (G3 A G4) A4 | B8 B4 | B8 B4 | B8 (c2 A2) | (G3 A B4) A4 | B8 B4 | (A3 G A4) B4 | %9
w: 1.~O|all ye|na- * * tions,|praise the|Lord, Each|with a *|diff- * * erent|tongue; In|eve- * * ry|
 B8 e4 | (e2 c>f d2) (B2 c2 d2) | e8 B4 | B8 e4 | (e3 d c4) B4 | B12 |] %15
w: lan- guage|learn~ _ _ _ his~ _ _|word, and|let his|name~ _ _ be|sung.|
V:2
 E4 | G8 F4 | (D4 E4) E4 | G8 F4 | G8 G4 | G8 E4 | G8 F4 | F8 G4 | F8 F4 | G8 G4 | %10
 (E3 F G2 E2) F4 | G8 G4 | G8 (E2 A2) | (G2 B2 A2 G2) F4 | G12 |] %15
V:3
 B4 | e8 c4 | B8 c4 | (B4 e4) d4 | e8 e4 | (e4 d4) c4 | (B3 e d4) c4 | B8 e4 | c8 d4 | e8 B4 | %10
w: 2.~His|mer- cy|reigns through|eve- * ry|land; Pro-|claim * his|grace~ _ _ a-|broad; For|ev- er|firm his|
 (c4 B4) ^A4 | B8 e4 | (e4 d4) c4 | (B4 e4) d4 | e12 |] %15
w: truth~ _ shall|stand; Praise|ye * the|faith- * ful|God.|
V:4
 E,4 | E,8 F,4 | (G,3 F, E,4) A,4 | (G,3 F, E,4) B,,4 | E,8 E,4 | (E,3 F, G,4) A,4 | %6
 (G,3 F, E,4) F,4 | B,,8 E,4 | F,8 B,,4 | E,8 E,4 | (A,4 G,4) F,4 | E,8 E,4 | %12
 (E,3 F, G,4) (A,2 F,2) | (G,2 E,2 A,4) B,4 | E,12 |] %15

